src/assets/outline/GalleryImport.svg

<svg width="24" height="24" viewBox="0 0 24 24"  xmlns="http://www.w3.org/2000/svg">
<path d="M9 10.75C7.48 10.75 6.25 9.52 6.25 8C6.25 6.48 7.48 5.25 9 5.25C10.52 5.25 11.75 6.48 11.75 8C11.75 9.52 10.52 10.75 9 10.75ZM9 6.75C8.31 6.75 7.75 7.31 7.75 8C7.75 8.69 8.31 9.25 9 9.25C9.69 9.25 10.25 8.69 10.25 8C10.25 7.31 9.69 6.75 9 6.75Z" />
<path d="M15 22.75H9C3.57 22.75 1.25 20.43 1.25 15V9C1.25 3.57 3.57 1.25 9 1.25H13C13.41 1.25 13.75 1.59 13.75 2C13.75 2.41 13.41 2.75 13 2.75H9C4.39 2.75 2.75 4.39 2.75 9V15C2.75 19.61 4.39 21.25 9 21.25H15C19.61 21.25 21.25 19.61 21.25 15V10C21.25 9.59 21.59 9.25 22 9.25C22.41 9.25 22.75 9.59 22.75 10V15C22.75 20.43 20.43 22.75 15 22.75Z" />
<path d="M18 8.75C17.9 8.75 17.81 8.73 17.71 8.69C17.43 8.58 17.25 8.3 17.25 8V2C17.25 1.59 17.59 1.25 18 1.25C18.41 1.25 18.75 1.59 18.75 2V6.19L19.47 5.47C19.76 5.18 20.24 5.18 20.53 5.47C20.82 5.76 20.82 6.24 20.53 6.53L18.53 8.53C18.39 8.67 18.2 8.75 18 8.75Z" />
<path d="M17.9999 8.74994C17.8099 8.74994 17.6199 8.67994 17.4699 8.52994L15.4699 6.52994C15.1799 6.23994 15.1799 5.75994 15.4699 5.46994C15.7599 5.17994 16.2399 5.17994 16.5299 5.46994L18.5299 7.46994C18.8199 7.75994 18.8199 8.23994 18.5299 8.52994C18.3799 8.67994 18.1899 8.74994 17.9999 8.74994Z" />
<path d="M2.66977 19.7001C2.42977 19.7001 2.18977 19.5801 2.04977 19.3701C1.81977 19.0301 1.90977 18.5601 2.25977 18.3301L7.18977 15.0201C8.26977 14.2901 9.75977 14.3801 10.7398 15.2101L11.0698 15.5001C11.5698 15.9301 12.4198 15.9301 12.9098 15.5001L17.0698 11.9301C18.1298 11.0201 19.7998 11.0201 20.8698 11.9301L22.4998 13.3301C22.8098 13.6001 22.8498 14.0701 22.5798 14.3901C22.3098 14.7001 21.8398 14.7401 21.5198 14.4701L19.8898 13.0701C19.3898 12.6401 18.5398 12.6401 18.0398 13.0701L13.8798 16.6401C12.8198 17.5501 11.1498 17.5501 10.0798 16.6401L9.74977 16.3501C9.28977 15.9601 8.52977 15.9201 8.01977 16.2701L3.08977 19.5801C2.95977 19.6601 2.80977 19.7001 2.66977 19.7001Z" />
</svg>

<?xml version="1.0" encoding="UTF-8"?>
<svg width="24" height="24" viewBox="0 0 24 24" xmlns="http://www.w3.org/2000/svg">
 <path d="m9 10.75c-1.52 0-2.75-1.23-2.75-2.75s1.23-2.75 2.75-2.75 2.75 1.23 2.75 2.75-1.23 2.75-2.75 2.75zm0-4c-0.69 0-1.25 0.56-1.25 1.25s0.56 1.25 1.25 1.25 1.25-0.56 1.25-1.25-0.56-1.25-1.25-1.25z"/>
 <path d="m15 22.75h-6c-5.43 0-7.75-2.32-7.75-7.75v-6c0-5.43 2.32-7.75 7.75-7.75h4c0.41 0 0.75 0.34 0.75 0.75s-0.34 0.75-0.75 0.75h-4c-4.61 0-6.25 1.64-6.25 6.25v6c0 4.61 1.64 6.25 6.25 6.25h6c4.61 0 6.25-1.64 6.25-6.25v-5c0-0.41 0.34-0.75 0.75-0.75s0.75 0.34 0.75 0.75v5c0 5.43-2.32 7.75-7.75 7.75z"/>
 <path d="m18 8.75c-0.1 0-0.19-0.02-0.29-0.06-0.28-0.11-0.46-0.39-0.46-0.69v-6c0-0.41 0.34-0.75 0.75-0.75s0.75 0.34 0.75 0.75v4.19l0.72-0.72c0.29-0.29 0.77-0.29 1.06 0s0.29 0.77 0 1.06l-2 2c-0.14 0.14-0.33 0.22-0.53 0.22z"/>
 <path d="m18 8.7499c-0.19 0-0.38-0.07-0.53-0.22l-2-2c-0.29-0.29-0.29-0.77 0-1.06s0.77-0.29 1.06 0l2 2c0.29 0.29 0.29 0.77 0 1.06-0.15 0.15-0.34 0.22-0.53 0.22z"/>
 <path d="m2.6698 19.7c-0.24 0-0.48-0.12-0.62-0.33-0.23-0.34-0.14-0.81 0.21-1.04l4.93-3.31c1.08-0.73 2.57-0.64 3.55 0.19l0.33 0.29c0.5 0.43 1.35 0.43 1.84 0l4.16-3.57c1.06-0.91 2.73-0.91 3.8 0l1.63 1.4c0.31 0.27 0.35 0.74 0.08 1.06-0.27 0.31-0.74 0.35-1.06 0.08l-1.63-1.4c-0.5-0.43-1.35-0.43-1.85 0l-4.16 3.57c-1.06 0.91-2.73 0.91-3.8 0l-0.33003-0.29c-0.46-0.39-1.22-0.43-1.73-0.08l-4.93 3.31c-0.13 0.08-0.28 0.12-0.42 0.12z"/>
</svg>
